UI/Discovery-Sharing/SVG/distribute_solid_16px.svg

<svg width="16" height="16" viewBox="0 0 16 16" fill="none" xmlns="http://www.w3.org/2000/svg">
<path d="M15 15H13V13H15V15ZM13 7H3C2.47042 7.00223 1.96335 7.21441 1.59 7.59C1.21441 7.96335 1.00223 8.47042 1 9V11H3V9H7V11H9V9H13V11H15V9C15 8.46957 14.7893 7.96086 14.4142 7.58579C14.0391 7.21071 13.5304 7 13 7V7ZM9 13H7V15H9V13ZM3 13H1V15H3V13ZM10 1L11 2L8 5L5 2L6 1L8 3L10 1Z" fill="#0F1621"/>
</svg>

<svg xmlns="http://www.w3.org/2000/svg" width="16" height="16" viewBox="0 0 16 16"><rect width="16" height="16" transform="translate(0 16) rotate(-90)" style="fill:none"/><path d="M15,15H13V13h2ZM13,7H3a2,2,0,0,0-1.41.59A2,2,0,0,0,1,9v2H3V9H7v2H9V9h4v2h2V9A2,2,0,0,0,13,7ZM9,13H7v2H9ZM3,13H1v2H3ZM10,1l1,1L8,5,5,2,6,1,8,3Z"/></svg>
